public/icons/appliance_icon.svg

<svg width="330" height="330" viewBox="0 0 330 330" fill="none" xmlns="http://www.w3.org/2000/svg">
<path d="M95.7567 24.5646C96.3017 24.4958 96.8546 24.4366 97.3995 24.3871C105.638 23.6453 114.364 24.2377 122.658 24.2342L172.839 24.2157L217.996 24.2117C225.408 24.2121 233.406 23.6271 240.762 24.4003C243.487 24.6872 245.819 25.9862 247.87 27.7417C251.525 30.8608 253.312 34.7863 253.592 39.554C254.434 54.174 253.712 69.282 253.712 83.9468L253.72 170.847L253.736 242.434C253.736 255.243 254.498 268.596 253.384 281.34C253.055 285.136 252.134 288.071 249.513 290.926C245.546 295.258 240.257 296.052 234.68 296.279C234.864 296.978 235.001 297.64 235.089 298.359C235.441 301.326 236.171 305.183 234.023 307.656C232.741 309.124 230.914 309.153 229.119 309.309C224.439 309.381 215.928 310.644 211.713 308.91C208.764 306.082 209.942 300.235 208.628 296.545C208.58 296.407 208.524 296.271 208.468 296.133C181.887 295.627 155.193 296.133 128.596 296.137C128.901 296.625 129.125 296.987 129.286 297.545C129.967 299.877 130.48 303.913 129.053 305.995C127.539 308.206 124.766 309.119 122.242 309.494C118.059 310.117 109.075 310.525 105.541 307.65C103.001 305.585 103.618 299.437 103.354 296.332C101.422 296.19 99.3789 296.088 97.5037 295.613C93.3928 294.572 89.5783 292.353 87.4467 288.611C85.5154 285.228 85.5554 281.49 85.4272 277.695C84.8583 260.952 85.3551 244.027 85.3631 227.27L85.3712 130.254C85.3632 117.428 84.1852 40.1382 86.0683 34.1886C87.5749 29.4412 91.5416 26.7211 95.7567 24.5646Z" fill="black"/>
<path d="M93.7207 139.987C98.9696 139.176 104.843 139.628 110.164 139.636L139.278 139.689L243.206 139.679C243.871 140.838 244.127 141.865 244.176 143.191C244.592 154.696 244.264 166.304 244.256 177.823L244.216 242.308L244.199 269.024C244.199 272.812 244.857 277.034 244.103 280.727C243.631 283.037 242.893 283.599 241.082 284.871C240.537 285.602 240.433 285.85 239.568 286.148C235.745 287.459 115.622 287.118 103.73 286.71C101.758 286.641 99.5706 286.612 97.8236 285.587C96.4213 284.765 95.059 283.217 94.7064 281.603C93.1437 274.417 94.3137 256.844 94.3137 248.638L94.3617 165.564C94.3697 159.061 95.4996 146.11 93.8328 140.339C93.7927 140.221 93.7528 140.104 93.7207 139.987Z" fill="#FEFEFE"/>
<path d="M113.059 156.218C113.892 156.076 114.758 155.924 115.615 155.913C117.266 155.893 118.252 156.535 119.406 157.635C120.896 160.49 121.177 195.204 119.726 199.16C119.037 201.029 118.179 201.179 116.481 201.912C116.352 201.955 116.232 202.016 116.104 202.039C114.533 202.317 113.844 201.974 112.538 201.237C111.039 199.276 110.871 196.979 110.719 194.598C110.254 187.402 109.773 165.859 111.087 159.488C111.36 158.17 112.185 157.203 113.059 156.218Z" fill="black"/>
<path d="M97.4956 34.1829C105.549 32.4415 132.627 33.6065 142.508 33.6028C171.781 33.5916 202.986 32.6212 232.052 33.6835C235.361 33.8045 238.558 34.178 241.796 34.8501C243.551 37.0476 244.024 39.5717 244.248 42.3027C245.194 53.6547 244.184 65.8001 244.2 77.2282C244.232 94.4198 245.226 112.274 244 129.382C242.325 130.287 240.522 130.062 238.671 130.042L93.3525 130.054C95.7646 126.061 94.2901 69.8734 94.234 61.0072C94.1859 54.085 93.2403 45.5418 94.7309 38.7705C95.1315 36.9248 96.3096 35.5893 97.4956 34.1829Z" fill="#FEFEFE"/>
<path d="M112.513 76.2627C113.65 76.0039 114.845 75.6641 116.006 75.846C117.417 76.0664 118.667 76.7571 119.428 78.0177C120.839 80.3544 120.863 109.407 120.021 112.921C119.589 114.722 118.507 115.08 117.056 115.946C115.726 116.592 114.604 116.456 113.258 116.044C112.152 115.125 111.599 114.42 111.23 113.009C109.892 107.924 109.94 84.8869 110.974 79.7831C111.238 78.4833 111.831 77.387 112.513 76.2627Z" fill="black"/>
</svg>

<svg xmlns="http://www.w3.org/2000/svg" width="330" height="330" fill="none" viewBox="0 0 330 330"><path fill="#000" d="M95.757 24.565a48 48 0 0 1 1.642-.178c8.239-.742 16.965-.15 25.259-.153l50.181-.018 45.157-.004c7.412 0 15.41-.585 22.766.188 2.725.287 5.057 1.586 7.108 3.342 3.655 3.119 5.442 7.044 5.722 11.812.842 14.62.12 29.728.12 44.393l.008 86.9.016 71.587c0 12.809.762 26.162-.352 38.906-.329 3.796-1.25 6.731-3.871 9.586-3.967 4.332-9.256 5.126-14.833 5.353.184.699.321 1.361.409 2.08.352 2.967 1.082 6.824-1.066 9.297-1.282 1.468-3.109 1.497-4.904 1.653-4.68.072-13.191 1.335-17.406-.399-2.949-2.828-1.771-8.675-3.085-12.365-.048-.138-.104-.274-.16-.412-26.581-.506-53.275 0-79.872.004.305.488.529.85.69 1.408.681 2.332 1.194 6.368-.233 8.45-1.514 2.211-4.287 3.124-6.811 3.499-4.183.623-13.167 1.031-16.701-1.844-2.54-2.065-1.923-8.213-2.187-11.318-1.932-.142-3.975-.244-5.85-.719-4.111-1.041-7.926-3.26-10.057-7.002-1.932-3.383-1.892-7.121-2.02-10.916-.569-16.743-.072-33.668-.064-50.425l.008-97.016c-.008-12.826-1.186-90.116.697-96.065 1.507-4.748 5.474-7.468 9.689-9.624"/><path fill="#fefefe" d="M93.72 139.987c5.25-.811 11.123-.359 16.444-.351l29.114.053 103.928-.01c.665 1.159.921 2.186.97 3.512.416 11.505.088 23.113.08 34.632l-.04 64.485-.017 26.716c0 3.788.658 8.01-.096 11.703-.472 2.31-1.21 2.872-3.021 4.144-.545.731-.649.979-1.514 1.277-3.823 1.311-123.946.97-135.838.562-1.972-.069-4.16-.098-5.906-1.123-1.403-.822-2.765-2.37-3.118-3.984-1.562-7.186-.392-24.759-.392-32.965l.048-83.074c.008-6.503 1.138-19.454-.53-25.225-.04-.118-.08-.235-.111-.352"/><path fill="#000" d="M113.059 156.218c.833-.142 1.699-.294 2.556-.305 1.651-.02 2.637.622 3.791 1.722 1.49 2.855 1.771 37.569.32 41.525-.689 1.869-1.547 2.019-3.245 2.752-.129.043-.249.104-.377.127-1.571.278-2.26-.065-3.566-.802-1.499-1.961-1.667-4.258-1.819-6.639-.465-7.196-.946-28.739.368-35.11.273-1.318 1.098-2.285 1.972-3.27"/><path fill="#fefefe" d="M97.496 34.183c8.053-1.742 35.131-.577 45.012-.58 29.273-.011 60.478-.982 89.544.08a58 58 0 0 1 9.744 1.167c1.755 2.198 2.228 4.722 2.452 7.453.946 11.352-.064 23.497-.048 34.925.032 17.192 1.026 35.046-.2 52.154-1.675.905-3.478.68-5.329.66l-145.318.012c2.412-3.993.937-60.18.881-69.047-.048-6.922-.994-15.465.497-22.236.4-1.846 1.579-3.182 2.765-4.588"/><path fill="#000" d="M112.513 76.263c1.137-.26 2.332-.599 3.493-.417 1.411.22 2.661.911 3.422 2.172 1.411 2.336 1.435 31.389.593 34.903-.432 1.801-1.514 2.159-2.965 3.025-1.33.646-2.452.51-3.798.098-1.106-.919-1.659-1.624-2.028-3.035-1.338-5.085-1.29-28.122-.256-33.226.264-1.3.857-2.396 1.539-3.52"/></svg>
